;FLAVOR:Marlin
;TIME:89
;Filament used: 0.24362m
;Layer height: 1
;MINX:-4.116
;MINY:-3.941
;MINZ:0.3
;MAXX:3.869
;MAXY:4.022
;MAXZ:30.3
;TARGET_MACHINE.NAME:Unknown
;Generated with Cura_SteamEngine 5.8.1
M104 S200
M105
M109 S200
M82 ;absolute extrusion mode
G28 ;Home
G1 Z15.0 F6000 ;Move the platform down 15mm
;Prime the extruder
G92 E0
G1 F200 E3
G92 E0
G92 E0
G92 E0
G1 F1500 E-6.5
;LAYER_COUNT:31
;LAYER:0
;note -- min layer time used
M106 S255
;MESH:Rod-lam1.STL
G0 F3600 X-.376 Y4.022 Z0.3
;TYPE:WALL-OUTER
G1 F1500 E0
G1 F600 X-1.358 Y3.833 E0.09405
G1 X-2.263 Y3.405 E0.18821
G1 X-3.037 Y2.765 E0.28267
G1 X-3.621 Y1.962 E0.37606
G1 X-3.991 Y1.029 E0.47046
G1 X-4.116 Y0.037 E0.56449
G1 X-3.991 Y-.952 E0.65825
G1 X-3.621 Y-1.886 E0.75274
G1 X-3.037 Y-2.689 E0.84613
G1 X-2.263 Y-3.329 E0.94059
G1 X-1.36 Y-3.757 E1.03457
G1 X-.378 Y-3.941 E1.12854
G1 X0.623 Y-3.881 E1.22286
G1 X1.57 Y-3.572 E1.31654
G1 X2.413 Y-3.039 E1.41035
G1 X3.098 Y-2.303 E1.50491
G1 X3.586 Y-1.424 E1.59947
G1 X3.839 Y-.435 E1.69549
G1 X3.869 Y0.05 E1.74119
G1 X3.839 Y0.514 E1.78492
G1 X3.587 Y1.499 E1.88055
G1 X3.098 Y2.379 E1.97523
G1 X2.413 Y3.115 E2.0698
G1 X1.57 Y3.648 E2.1636
G1 X0.621 Y3.958 E2.2575
G1 X-.376 Y4.022 E2.35146
G0 F3600 X0.621 Y3.958
G0 X0.036 Y0.892
G0 X-.244 Y2.109
;TYPE:SKIN
G1 F600 X-.766 Y2.009 E2.40145
G1 X-1.23 Y1.789 E2.44975
G1 X-1.642 Y1.448 E2.50005
G1 X-1.941 Y1.04 E2.54763
G1 X-2.135 Y0.549 E2.59728
G1 X-2.2 Y0.037 E2.64582
G1 X-2.135 Y-.472 E2.69408
G1 X-1.941 Y-.961 E2.74356
G1 X-1.64 Y-1.375 E2.7917
G1 X-1.235 Y-1.713 E2.84132
G1 X-.767 Y-1.932 E2.88992
G1 X-.256 Y-2.026 E2.93878
G1 X0.264 Y-1.996 E2.98777
G1 X0.755 Y-1.836 E3.03634
G1 X1.187 Y-1.564 E3.08435
G1 X1.541 Y-1.179 E3.13355
G1 X1.807 Y-.709 E3.18434
G1 X1.944 Y-.167 E3.23692
G1 X1.944 Y0.243 E3.27548
G1 X1.807 Y0.785 E3.32806
G1 X1.541 Y1.254 E3.37877
G1 X1.186 Y1.64 E3.4281
G1 X0.754 Y1.912 E3.47611
G1 X0.252 Y2.078 E3.52584
G1 X-.244 Y2.109 E3.57258
G0 F3600 X-.181 Y0.906
G0 X-.663 Y-.636
G0 X-.785 Y-.785
G1 F600 X0.696 Y0.696 E3.76957
;MESH:NONMESH
G0 X0.696 Y0.696 Z1.3
G0 F3600 X0.56 Y0.567
G0 X-.376 Y4.022
;TIME_ELAPSED:6.655169
;LAYER:1
;note -- min layer time used
;TYPE:WALL-OUTER
;MESH:Rod-lam1.STL
G1 F600 X-1.358 Y3.833 E4.08308
G1 X-2.263 Y3.405 E4.39694
G1 X-3.037 Y2.765 E4.71181
G1 X-3.621 Y1.962 E5.02309
G1 X-3.991 Y1.029 E5.33776
G1 X-4.116 Y0.037 E5.65122
G1 X-3.991 Y-.952 E5.96375
G1 X-3.621 Y-1.886 E6.2787
G1 X-3.037 Y-2.689 E6.58999
G1 X-2.263 Y-3.329 E6.90485
G1 X-1.36 Y-3.757 E7.21814
G1 X-.378 Y-3.941 E7.53137
G1 X0.623 Y-3.881 E7.84575
G1 X1.57 Y-3.572 E8.15805
G1 X2.413 Y-3.039 E8.47073
G1 X3.098 Y-2.303 E8.78595
G1 X3.586 Y-1.424 E9.10115
G1 X3.839 Y-.435 E9.42119
G1 X3.869 Y0.043 E9.57134
G1 X3.839 Y0.514 E9.71931
G1 X3.587 Y1.499 E10.03806
G1 X3.098 Y2.379 E10.35368
G1 X2.413 Y3.115 E10.6689
G1 X1.57 Y3.648 E10.98158
G1 X0.621 Y3.958 E11.29457
G1 X-.376 Y4.022 E11.60778
G0 F5400 X0.621 Y3.958
;MESH:NONMESH
G0 F600 X0.621 Y3.958 Z2.3
G0 F5400 X-.376 Y4.022
;TIME_ELAPSED:9.382513
;LAYER:2
;note -- min layer time used
;TYPE:WALL-OUTER
;MESH:Rod-lam1.STL
G1 F600 X-1.358 Y3.833 E11.9213
G1 X-2.263 Y3.405 E12.23516
G1 X-3.037 Y2.765 E12.55002
G1 X-3.621 Y1.962 E12.86131
G1 X-3.991 Y1.029 E13.17597
G1 X-4.116 Y0.037 E13.48943
G1 X-3.991 Y-.952 E13.80196
G1 X-3.621 Y-1.886 E14.11692
G1 X-3.037 Y-2.689 E14.4282
G1 X-2.263 Y-3.329 E14.74307
G1 X-1.36 Y-3.757 E15.05636
G1 X-.378 Y-3.941 E15.36958
G1 X0.623 Y-3.881 E15.68397
G1 X1.57 Y-3.572 E15.99627
G1 X2.413 Y-3.039 E16.30895
G1 X3.098 Y-2.303 E16.62417
G1 X3.586 Y-1.424 E16.93936
G1 X3.836 Y-.449 E17.25492
G1 X3.865 Y0.41 E17.52438
G1 X3.586 Y1.5 E17.87712
G1 X3.098 Y2.379 E18.19232
G1 X2.413 Y3.115 E18.50753
G1 X1.57 Y3.648 E18.82022
G1 X0.621 Y3.958 E19.13321
G1 X-.376 Y4.022 E19.44642
G0 F7200 X0.621 Y3.958
;MESH:NONMESH
G0 F600 X0.621 Y3.958 Z3.3
G0 F7200 X-.376 Y4.022
;TIME_ELAPSED:12.102750
;LAYER:3
;note -- min layer time used
;TYPE:WALL-OUTER
;MESH:Rod-lam1.STL
G1 F600 X-1.358 Y3.833 E19.75994
G1 X-2.263 Y3.405 E20.07379
G1 X-3.037 Y2.765 E20.38866
G1 X-3.621 Y1.962 E20.69994
G1 X-3.991 Y1.029 E21.01461
G1 X-4.116 Y0.037 E21.32807
G1 X-3.991 Y-.952 E21.6406
G1 X-3.621 Y-1.886 E21.95555
G1 X-3.037 Y-2.689 E22.26684
G1 X-2.263 Y-3.329 E22.58171
G1 X-1.36 Y-3.757 E22.895
G1 X-.378 Y-3.941 E23.20822
G1 X0.623 Y-3.881 E23.52261
G1 X1.57 Y-3.572 E23.8349
G1 X2.413 Y-3.039 E24.14759
G1 X3.098 Y-2.303 E24.4628
G1 X3.586 Y-1.424 E24.778
G1 X3.852 Y-.384 E25.11454
G1 X3.855 Y0.458 E25.37852
G1 X3.587 Y1.499 E25.71553
G1 X3.098 Y2.379 E26.03115
G1 X2.413 Y3.115 E26.34636
G1 X1.57 Y3.648 E26.65905
G1 X0.621 Y3.958 E26.97204
G1 X-.376 Y4.022 E27.28525
G0 F7200 X0.621 Y3.958
;MESH:NONMESH
G0 F600 X0.621 Y3.958 Z4.3
G0 F7200 X-.376 Y4.022
;TIME_ELAPSED:14.823050
;LAYER:4
;note -- min layer time used
;TYPE:WALL-OUTER
;MESH:Rod-lam1.STL
G1 F600 X-1.358 Y3.833 E27.59877
G1 X-2.263 Y3.405 E27.91262
G1 X-3.037 Y2.765 E28.22749
G1 X-3.621 Y1.962 E28.53877
G1 X-3.991 Y1.029 E28.85344
G1 X-4.116 Y0.037 E29.1669
G1 X-3.991 Y-.952 E29.47943
G1 X-3.621 Y-1.886 E29.79438
G1 X-3.037 Y-2.689 E30.10567
G1 X-2.263 Y-3.329 E30.42054
G1 X-1.36 Y-3.757 E30.73383
G1 X-.378 Y-3.941 E31.04705
G1 X0.623 Y-3.881 E31.36144
G1 X1.57 Y-3.572 E31.67373
G1 X2.413 Y-3.039 E31.98642
G1 X3.098 Y-2.303 E32.30163
G1 X3.586 Y-1.423 E32.6171
G1 X3.848 Y-.409 E32.94544
G1 X3.848 Y0.481 E33.22446
G1 X3.587 Y1.499 E33.55394
G1 X3.098 Y2.379 E33.86956
G1 X2.413 Y3.115 E34.18478
G1 X1.57 Y3.648 E34.49746
G1 X0.621 Y3.958 E34.81045
G1 X-.376 Y4.022 E35.12367
G0 F7200 X0.621 Y3.958
;MESH:NONMESH
G0 F600 X0.621 Y3.958 Z5.3
G0 F7200 X-.376 Y4.022
;TIME_ELAPSED:17.543217
;LAYER:5
;note -- min layer time used
;TYPE:WALL-OUTER
;MESH:Rod-lam1.STL
G1 F600 X-1.358 Y3.833 E35.43718
G1 X-2.263 Y3.405 E35.75104
G1 X-3.037 Y2.765 E36.0659
G1 X-3.621 Y1.962 E36.37719
G1 X-3.991 Y1.029 E36.69185
G1 X-4.116 Y0.037 E37.00531
G1 X-3.991 Y-.952 E37.31784
G1 X-3.621 Y-1.886 E37.6328
G1 X-3.037 Y-2.689 E37.94408
G1 X-2.263 Y-3.329 E38.25895
G1 X-1.36 Y-3.757 E38.57224
G1 X-.378 Y-3.941 E38.88546
G1 X0.623 Y-3.881 E39.19985
G1 X1.57 Y-3.572 E39.51215
G1 X2.413 Y-3.039 E39.82483
G1 X3.098 Y-2.303 E40.14005
G1 X3.586 Y-1.424 E40.45524
G1 X3.84 Y-.434 E40.77567
G1 X3.84 Y0.51 E41.07162
G1 X3.586 Y1.5 E41.39205
G1 X3.098 Y2.379 E41.70724
G1 X2.413 Y3.115 E42.02246
G1 X1.57 Y3.648 E42.33514
G1 X0.621 Y3.958 E42.64814
G1 X-.376 Y4.022 E42.96135
G0 F7200 X0.621 Y3.958
;MESH:NONMESH
G0 F600 X0.621 Y3.958 Z6.3
G0 F7200 X-.376 Y4.022
;TIME_ELAPSED:20.263150
;LAYER:6
;note -- min layer time used
;TYPE:WALL-OUTER
;MESH:Rod-lam1.STL
G1 F600 X-1.358 Y3.833 E43.27486
G1 X-2.263 Y3.405 E43.58872
G1 X-3.037 Y2.765 E43.90359
G1 X-3.621 Y1.962 E44.21487
G1 X-3.991 Y1.029 E44.52954
G1 X-4.116 Y0.037 E44.843
G1 X-3.991 Y-.952 E45.15553
G1 X-3.621 Y-1.886 E45.47048
G1 X-3.037 Y-2.689 E45.78177
G1 X-2.263 Y-3.329 E46.09663
G1 X-1.36 Y-3.757 E46.40992
G1 X-.378 Y-3.941 E46.72315
G1 X0.623 Y-3.881 E47.03753
G1 X1.57 Y-3.572 E47.34983
G1 X2.413 Y-3.039 E47.66251
G1 X3.098 Y-2.303 E47.97773
G1 X3.586 Y-1.424 E48.29293
G1 X3.832 Y-.462 E48.60423
G1 X3.832 Y0.538 E48.91774
G1 X3.586 Y1.5 E49.22904
G1 X3.098 Y2.379 E49.54423
G1 X2.413 Y3.115 E49.85945
G1 X1.57 Y3.648 E50.17213
G1 X0.621 Y3.958 E50.48512
G1 X-.376 Y4.022 E50.79834
G0 F7200 X0.621 Y3.958
;MESH:NONMESH
G0 F600 X0.621 Y3.958 Z7.3
G0 F7200 X-.376 Y4.022
;TIME_ELAPSED:22.982862
;LAYER:7
;note -- min layer time used
;TYPE:WALL-OUTER
;MESH:Rod-lam1.STL
G1 F600 X-1.358 Y3.833 E51.11185
G1 X-2.263 Y3.405 E51.42571
G1 X-3.037 Y2.765 E51.74057
G1 X-3.621 Y1.962 E52.05186
G1 X-3.991 Y1.029 E52.36653
G1 X-4.116 Y0.037 E52.67999
G1 X-3.991 Y-.952 E52.99251
G1 X-3.621 Y-1.886 E53.30747
G1 X-3.037 Y-2.689 E53.61876
G1 X-2.263 Y-3.329 E53.93362
G1 X-1.36 Y-3.757 E54.24691
G1 X-.378 Y-3.941 E54.56013
G1 X0.623 Y-3.881 E54.87452
G1 X1.57 Y-3.572 E55.18682
G1 X2.413 Y-3.039 E55.4995
G1 X3.098 Y-2.303 E55.81472
G1 X3.586 Y-1.424 E56.12991
G1 X3.832 Y-.462 E56.44121
G1 X3.832 Y0.538 E56.75472
G1 X3.586 Y1.5 E57.06602
G1 X3.098 Y2.379 E57.38122
G1 X2.413 Y3.115 E57.69644
G1 X1.57 Y3.648 E58.00912
G1 X0.621 Y3.958 E58.32211
G1 X-.376 Y4.022 E58.63532
G0 F7200 X0.621 Y3.958
;MESH:NONMESH
G0 F600 X0.621 Y3.958 Z8.3
G0 F7200 X-.376 Y4.022
;TIME_ELAPSED:25.702574
;LAYER:8
;note -- min layer time used
;TYPE:WALL-OUTER
;MESH:Rod-lam1.STL
G1 F600 X-1.358 Y3.833 E58.94884
G1 X-2.263 Y3.405 E59.2627
G1 X-3.037 Y2.765 E59.57756
G1 X-3.621 Y1.962 E59.88885
G1 X-3.991 Y1.029 E60.20351
G1 X-4.116 Y0.037 E60.51697
G1 X-3.991 Y-.952 E60.8295
G1 X-3.621 Y-1.886 E61.14446
G1 X-3.037 Y-2.689 E61.45574
G1 X-2.263 Y-3.329 E61.77061
G1 X-1.36 Y-3.757 E62.0839
G1 X-.378 Y-3.941 E62.39712
G1 X0.623 Y-3.881 E62.71151
G1 X1.57 Y-3.572 E63.02381
G1 X2.413 Y-3.039 E63.33649
G1 X3.098 Y-2.303 E63.65171
G1 X3.586 Y-1.424 E63.9669
G1 X3.832 Y-.462 E64.2782
G1 X3.832 Y0.538 E64.59171
G1 X3.586 Y1.5 E64.90301
G1 X3.098 Y2.379 E65.21821
G1 X2.413 Y3.115 E65.53342
G1 X1.57 Y3.648 E65.84611
G1 X0.621 Y3.958 E66.1591
G1 X-.376 Y4.022 E66.47231
G0 F7200 X0.621 Y3.958
;MESH:NONMESH
G0 F600 X0.621 Y3.958 Z9.3
G0 F7200 X-.376 Y4.022
;TIME_ELAPSED:28.422286
;LAYER:9
;note -- min layer time used
;TYPE:WALL-OUTER
;MESH:Rod-lam1.STL
G1 F600 X-1.358 Y3.833 E66.78583
G1 X-2.263 Y3.405 E67.09968
G1 X-3.037 Y2.765 E67.41455
G1 X-3.621 Y1.962 E67.72583
G1 X-3.991 Y1.029 E68.0405
G1 X-4.116 Y0.037 E68.35396
G1 X-3.991 Y-.952 E68.66649
G1 X-3.621 Y-1.886 E68.98145
G1 X-3.037 Y-2.689 E69.29273
G1 X-2.263 Y-3.329 E69.6076
G1 X-1.36 Y-3.757 E69.92089
G1 X-.378 Y-3.941 E70.23411
G1 X0.623 Y-3.881 E70.5485
G1 X1.57 Y-3.572 E70.86079
G1 X2.413 Y-3.039 E71.17348
G1 X3.098 Y-2.303 E71.48869
G1 X3.586 Y-1.424 E71.80389
G1 X3.832 Y-.462 E72.11519
G1 X3.832 Y0.538 E72.4287
G1 X3.586 Y1.5 E72.74
G1 X3.098 Y2.379 E73.0552
G1 X2.413 Y3.115 E73.37041
G1 X1.57 Y3.648 E73.6831
G1 X0.621 Y3.958 E73.99609
G1 X-.376 Y4.022 E74.3093
G0 F7200 X0.621 Y3.958
;MESH:NONMESH
G0 F600 X0.621 Y3.958 Z10.3
G0 F7200 X-.376 Y4.022
;TIME_ELAPSED:31.141997
;LAYER:10
;note -- min layer time used
;TYPE:WALL-OUTER
;MESH:Rod-lam1.STL
G1 F600 X-1.358 Y3.833 E74.62282
G1 X-2.263 Y3.405 E74.93667
G1 X-3.037 Y2.765 E75.25154
G1 X-3.621 Y1.962 E75.56282
G1 X-3.991 Y1.029 E75.87749
G1 X-4.116 Y0.037 E76.19095
G1 X-3.991 Y-.952 E76.50348
G1 X-3.621 Y-1.886 E76.81843
G1 X-3.037 Y-2.689 E77.12972
G1 X-2.263 Y-3.329 E77.44458
G1 X-1.36 Y-3.757 E77.75787
G1 X-.378 Y-3.941 E78.0711
G1 X0.623 Y-3.881 E78.38548
G1 X1.57 Y-3.572 E78.69778
G1 X2.413 Y-3.039 E79.01046
G1 X3.098 Y-2.303 E79.32568
G1 X3.586 Y-1.424 E79.64088
G1 X3.832 Y-.462 E79.95218
G1 X3.832 Y0.538 E80.26569
G1 X3.586 Y1.5 E80.57699
G1 X3.098 Y2.379 E80.89218
G1 X2.413 Y3.115 E81.2074
G1 X1.57 Y3.648 E81.52008
G1 X0.621 Y3.958 E81.83307
G1 X-.376 Y4.022 E82.14629
G0 F7200 X0.621 Y3.958
;MESH:NONMESH
G0 F600 X0.621 Y3.958 Z11.3
G0 F7200 X-.376 Y4.022
;TIME_ELAPSED:33.861709
;LAYER:11
;note -- min layer time used
;TYPE:WALL-OUTER
;MESH:Rod-lam1.STL
G1 F600 X-1.358 Y3.833 E82.4598
G1 X-2.263 Y3.405 E82.77366
G1 X-3.037 Y2.765 E83.08852
G1 X-3.621 Y1.962 E83.39981
G1 X-3.991 Y1.029 E83.71448
G1 X-4.116 Y0.037 E84.02794
G1 X-3.991 Y-.952 E84.34046
G1 X-3.621 Y-1.886 E84.65542
G1 X-3.037 Y-2.689 E84.96671
G1 X-2.263 Y-3.329 E85.28157
G1 X-1.36 Y-3.757 E85.59486
G1 X-.378 Y-3.941 E85.90808
G1 X0.623 Y-3.881 E86.22247
G1 X1.57 Y-3.572 E86.53477
G1 X2.413 Y-3.039 E86.84745
G1 X3.098 Y-2.303 E87.16267
G1 X3.586 Y-1.424 E87.47786
G1 X3.832 Y-.462 E87.78917
G1 X3.832 Y0.538 E88.10267
G1 X3.586 Y1.5 E88.41398
G1 X3.098 Y2.379 E88.72917
G1 X2.413 Y3.115 E89.04439
G1 X1.57 Y3.648 E89.35707
G1 X0.621 Y3.958 E89.67006
G1 X-.376 Y4.022 E89.98327
G0 F7200 X0.621 Y3.958
;MESH:NONMESH
G0 F600 X0.621 Y3.958 Z12.3
G0 F7200 X-.376 Y4.022
;TIME_ELAPSED:36.581421
;LAYER:12
;note -- min layer time used
;TYPE:WALL-OUTER
;MESH:Rod-lam1.STL
G1 F600 X-1.358 Y3.833 E90.29679
G1 X-2.263 Y3.405 E90.61065
G1 X-3.037 Y2.765 E90.92551
G1 X-3.621 Y1.962 E91.2368
G1 X-3.991 Y1.029 E91.55146
G1 X-4.116 Y0.037 E91.86492
G1 X-3.991 Y-.952 E92.17745
G1 X-3.621 Y-1.886 E92.49241
G1 X-3.037 Y-2.689 E92.80369
G1 X-2.263 Y-3.329 E93.11856
G1 X-1.36 Y-3.757 E93.43185
G1 X-.378 Y-3.941 E93.74507
G1 X0.623 Y-3.881 E94.05946
G1 X1.57 Y-3.572 E94.37176
G1 X2.413 Y-3.039 E94.68444
G1 X3.098 Y-2.303 E94.99966
G1 X3.586 Y-1.424 E95.31485
G1 X3.832 Y-.462 E95.62615
G1 X3.832 Y0.538 E95.93966
G1 X3.586 Y1.5 E96.25096
G1 X3.098 Y2.379 E96.56616
G1 X2.413 Y3.115 E96.88137
G1 X1.57 Y3.648 E97.19406
G1 X0.621 Y3.958 E97.50705
G1 X-.376 Y4.022 E97.82026
G0 F7200 X0.621 Y3.958
;MESH:NONMESH
G0 F600 X0.621 Y3.958 Z13.3
G0 F7200 X-.376 Y4.022
;TIME_ELAPSED:39.301133
;LAYER:13
;note -- min layer time used
;TYPE:WALL-OUTER
;MESH:Rod-lam1.STL
G1 F600 X-1.358 Y3.833 E98.13378
G1 X-2.263 Y3.405 E98.44763
G1 X-3.037 Y2.765 E98.7625
G1 X-3.621 Y1.962 E99.07379
G1 X-3.991 Y1.029 E99.38845
G1 X-4.116 Y0.037 E99.70191
G1 X-3.991 Y-.952 E100.01444
G1 X-3.621 Y-1.886 E100.3294
G1 X-3.037 Y-2.689 E100.64068
G1 X-2.263 Y-3.329 E100.95555
G1 X-1.36 Y-3.757 E101.26884
G1 X-.378 Y-3.941 E101.58206
G1 X0.623 Y-3.881 E101.89645
G1 X1.57 Y-3.572 E102.20874
G1 X2.413 Y-3.039 E102.52143
G1 X3.098 Y-2.303 E102.83664
G1 X3.586 Y-1.424 E103.15184
G1 X3.832 Y-.462 E103.46314
G1 X3.832 Y0.538 E103.77665
G1 X3.586 Y1.5 E104.08795
G1 X3.098 Y2.379 E104.40315
G1 X2.413 Y3.115 E104.71836
G1 X1.57 Y3.648 E105.03105
G1 X0.621 Y3.958 E105.34404
G1 X-.376 Y4.022 E105.65725
G0 F7200 X0.621 Y3.958
;MESH:NONMESH
G0 F600 X0.621 Y3.958 Z14.3
G0 F7200 X-.376 Y4.022
;TIME_ELAPSED:42.020844
;LAYER:14
;note -- min layer time used
;TYPE:WALL-OUTER
;MESH:Rod-lam1.STL
G1 F600 X-1.358 Y3.833 E105.97077
G1 X-2.263 Y3.405 E106.28462
G1 X-3.037 Y2.765 E106.59949
G1 X-3.621 Y1.962 E106.91077
G1 X-3.991 Y1.029 E107.22544
G1 X-4.116 Y0.037 E107.5389
G1 X-3.991 Y-.952 E107.85143
G1 X-3.621 Y-1.886 E108.16638
G1 X-3.037 Y-2.689 E108.47767
G1 X-2.263 Y-3.329 E108.79254
G1 X-1.36 Y-3.757 E109.10582
G1 X-.378 Y-3.941 E109.41905
G1 X0.623 Y-3.881 E109.73343
G1 X1.57 Y-3.572 E110.04573
G1 X2.413 Y-3.039 E110.35842
G1 X3.098 Y-2.303 E110.67363
G1 X3.586 Y-1.424 E110.98883
G1 X3.832 Y-.462 E111.30013
G1 X3.832 Y0.538 E111.61364
G1 X3.586 Y1.5 E111.92494
G1 X3.098 Y2.379 E112.24013
G1 X2.413 Y3.115 E112.55535
G1 X1.57 Y3.648 E112.86803
G1 X0.621 Y3.958 E113.18102
G1 X-.376 Y4.022 E113.49424
G0 F7200 X0.621 Y3.958
;MESH:NONMESH
G0 F600 X0.621 Y3.958 Z15.3
G0 F7200 X-.376 Y4.022
;TIME_ELAPSED:44.740556
;LAYER:15
;note -- min layer time used
;TYPE:WALL-OUTER
;MESH:Rod-lam1.STL
G1 F600 X-1.358 Y3.833 E113.80775
G1 X-2.263 Y3.405 E114.12161
G1 X-3.037 Y2.765 E114.43647
G1 X-3.621 Y1.962 E114.74776
G1 X-3.991 Y1.029 E115.06243
G1 X-4.116 Y0.037 E115.37589
G1 X-3.991 Y-.952 E115.68841
G1 X-3.621 Y-1.886 E116.00337
G1 X-3.037 Y-2.689 E116.31466
G1 X-2.263 Y-3.329 E116.62952
G1 X-1.36 Y-3.757 E116.94281
G1 X-.378 Y-3.941 E117.25604
G1 X0.623 Y-3.881 E117.57042
G1 X1.57 Y-3.572 E117.88272
G1 X2.413 Y-3.039 E118.1954
G1 X3.098 Y-2.303 E118.51062
G1 X3.586 Y-1.424 E118.82581
G1 X3.832 Y-.462 E119.13712
G1 X3.832 Y0.538 E119.45062
G1 X3.586 Y1.5 E119.76193
G1 X3.098 Y2.379 E120.07712
G1 X2.413 Y3.115 E120.39234
G1 X1.57 Y3.648 E120.70502
G1 X0.621 Y3.958 E121.01801
G1 X-.376 Y4.022 E121.33122
G0 F7200 X0.621 Y3.958
;MESH:NONMESH
G0 F600 X0.621 Y3.958 Z16.3
G0 F7200 X-.376 Y4.022
;TIME_ELAPSED:47.460268
;LAYER:16
;note -- min layer time used
;TYPE:WALL-OUTER
;MESH:Rod-lam1.STL
G1 F600 X-1.358 Y3.833 E121.64474
G1 X-2.263 Y3.405 E121.9586
G1 X-3.037 Y2.765 E122.27346
G1 X-3.621 Y1.962 E122.58475
G1 X-3.991 Y1.029 E122.89941
G1 X-4.116 Y0.037 E123.21287
G1 X-3.991 Y-.952 E123.5254
G1 X-3.621 Y-1.886 E123.84036
G1 X-3.037 Y-2.689 E124.15164
G1 X-2.263 Y-3.329 E124.46651
G1 X-1.36 Y-3.757 E124.7798
G1 X-.378 Y-3.941 E125.09302
G1 X0.623 Y-3.881 E125.40741
G1 X1.57 Y-3.572 E125.71971
G1 X2.413 Y-3.039 E126.03239
G1 X3.098 Y-2.303 E126.34761
G1 X3.586 Y-1.424 E126.6628
