;FLAVOR:Marlin
;TIME:68
;Filament used: 0.725615m
;Layer height: 2
;MINX:-19.405
;MINY:-13.551
;MINZ:0.3
;MAXX:16.021
;MAXY:13.551
;MAXZ:20.3
;TARGET_MACHINE.NAME:Unknown
;Generated with Cura_SteamEngine 5.8.1
M104 S200
M105
M109 S200
M82 ;absolute extrusion mode
G28 ;Home;
G1 Z15.0 F6000 Move the platform down 15mm
;Prime the extruder
G92 E0
G1 F200 E3
G92 E0
G92 E0
G92 E0
G1 F1500 E-6.5
;LAYER_COUNT:11
;LAYER:0
M107
G0 F3600 X12.193 Y-0.005 Z0.3
;TYPE:SKIRT
G1 F1500 E0
G1 F1800 X12.076 Y1.812 E0.17125
G1 X11.721 Y3.584 E0.34122
G1 X11.154 Y5.255 E0.50718
G1 X10.369 Y6.839 E0.67346
G1 X9.395 Y8.291 E0.8379
G1 X8.25 Y9.597 E1.00126
G1 X6.932 Y10.754 E1.1662
G1 X5.48 Y11.726 E1.33054
G1 X3.896 Y12.511 E1.49681
G1 X2.221 Y13.08 E1.66319
G1 X0.461 Y13.433 E1.83202
G1 X-1.357 Y13.551 E2.00337
G1 X-3.172 Y13.434 E2.17443
G1 X-4.934 Y13.081 E2.34345
G1 X-6.608 Y12.512 E2.50974
G1 X-8.195 Y11.726 E2.6763
G1 X-9.645 Y10.754 E2.84048
G1 X-10.967 Y9.594 E3.0059
G1 X-12.111 Y8.289 E3.16913
G1 X-13.085 Y6.834 E3.3338
G1 X-13.866 Y5.258 E3.49923
G1 X-14.437 Y3.58 E3.66594
G1 X-14.791 Y1.817 E3.83507
G1 X-14.908 Y0.001 E4.00622
G1 X-14.791 Y-1.816 E4.17747
G1 X-14.439 Y-3.569 E4.34563
G1 X-13.864 Y-5.266 E4.51415
G1 X-13.084 Y-6.837 E4.67912
G1 X-12.114 Y-8.286 E4.84312
G1 X-10.967 Y-9.594 E5.00674
G1 X-9.64 Y-10.759 E5.17282
G1 X-8.19 Y-11.73 E5.33695
G1 X-6.628 Y-12.503 E5.50087
G1 X-4.926 Y-13.082 E5.66996
G1 X-3.175 Y-13.433 E5.83792
G1 X-1.357 Y-13.551 E6.00927
G1 X0.46 Y-13.434 E6.18052
G1 X2.222 Y-13.08 E6.34955
G1 X3.897 Y-12.512 E6.5159
G1 X5.483 Y-11.725 E6.68242
G1 X6.925 Y-10.76 E6.84561
G1 X8.247 Y-9.599 E7.01109
G1 X9.392 Y-8.292 E7.17452
G1 X10.372 Y-6.833 E7.33982
G1 X11.149 Y-5.268 E7.50416
G1 X11.721 Y-3.58 E7.67179
G1 X12.076 Y-1.814 E7.84121
G1 X12.193 Y-0.005 E8.0117
G0 F3600 X10.189 Y-0.004
G1 F1800 X10.089 Y1.551 E8.15826
G1 X9.786 Y3.062 E8.3032
G1 X9.302 Y4.488 E8.44484
G1 X8.637 Y5.83 E8.5857
G1 X7.802 Y7.074 E8.72662
G1 X6.832 Y8.181 E8.86505
G1 X5.714 Y9.162 E9.00494
G1 X4.473 Y9.993 E9.14541
G1 X3.129 Y10.659 E9.28649
G1 X1.7 Y11.144 E9.42842
G1 X0.199 Y11.446 E9.57242
G1 X-1.357 Y11.547 E9.71907
G1 X-2.912 Y11.446 E9.86563
G1 X-4.41 Y11.146 E10.00932
G1 X-5.843 Y10.659 E10.15167
G1 X-7.194 Y9.99 E10.29346
G1 X-8.422 Y9.167 E10.4325
G1 X-9.549 Y8.178 E10.57352
G1 X-10.519 Y7.071 E10.71195
G1 X-11.35 Y5.83 E10.85243
G1 X-12.015 Y4.489 E10.99321
G1 X-12.502 Y3.056 E11.13555
G1 X-12.803 Y1.556 E11.27945
G1 X-12.904 Y0.001 E11.42601
G1 X-12.803 Y-1.555 E11.57266
G1 X-12.503 Y-3.05 E11.71607
G1 X-12.014 Y-4.493 E11.85937
G1 X-11.349 Y-5.833 E12.00007
G1 X-10.522 Y-7.068 E12.13986
G1 X-9.549 Y-8.178 E12.27869
G1 X-8.422 Y-9.167 E12.41972
G1 X-7.187 Y-9.994 E12.55951
G1 X-5.855 Y-10.653 E12.69928
G1 X-4.407 Y-11.146 E12.84315
G1 X-2.913 Y-11.446 E12.98647
G1 X-1.357 Y-11.547 E13.13312
G1 X0.199 Y-11.446 E13.27977
G1 X1.7 Y-11.145 E13.42376
G1 X3.126 Y-10.661 E13.56539
G1 X4.479 Y-9.99 E13.70743
G1 X5.707 Y-9.168 E13.84642
G1 X6.829 Y-8.183 E13.98684
G1 X7.804 Y-7.07 E14.12601
G1 X8.636 Y-5.831 E14.26637
G1 X9.299 Y-4.495 E14.40665
G1 X9.785 Y-3.062 E14.54897
G1 X10.089 Y-1.551 E14.69393
G1 X10.189 Y-0.004 E14.83973
G1 F1500 E8.33973
G0 F3600 X6.181 Y-0.002
G1 F1500 E14.83973
G1 F1800 X6.115 Y1.025 E14.93653
G1 X5.915 Y2.02 E15.03198
G1 X5.599 Y2.95 E15.12436
G1 X5.167 Y3.821 E15.2158
G1 X4.622 Y4.634 E15.30786
G1 X3.999 Y5.345 E15.39677
G1 X3.271 Y5.984 E15.48788
G1 X2.466 Y6.523 E15.57899
G1 X1.591 Y6.957 E15.67086
G1 X0.658 Y7.274 E15.76353
G1 X-.327 Y7.472 E15.85803
G1 X-1.357 Y7.539 E15.95511
G1 X-2.387 Y7.472 E16.05219
G1 X-3.373 Y7.274 E16.14677
G1 X-4.305 Y6.957 E16.23936
G1 X-5.184 Y6.522 E16.33161
G1 X-5.982 Y5.987 E16.42197
G1 X-6.709 Y5.349 E16.51294
G1 X-7.341 Y4.628 E16.60311
G1 X-7.88 Y3.823 E16.69423
G1 X-8.314 Y2.948 E16.78609
G1 X-8.631 Y2.016 E16.87868
G1 X-8.829 Y1.03 E16.97327
G1 X-8.896 Y0.001 E17.07026
G1 X-8.829 Y-1.03 E17.16743
G1 X-8.631 Y-2.016 E17.26202
G1 X-8.314 Y-2.948 E17.35461
G1 X-7.881 Y-3.822 E17.44634
G1 X-7.341 Y-4.628 E17.53759
G1 X-6.709 Y-5.349 E17.62777
G1 X-5.982 Y-5.987 E17.71874
G1 X-5.184 Y-6.522 E17.8091
G1 X-4.305 Y-6.957 E17.90134
G1 X-3.373 Y-7.274 E17.99393
G1 X-2.387 Y-7.472 E18.08852
G1 X-1.357 Y-7.539 E18.1856
G1 X-.327 Y-7.472 E18.28268
G1 X0.658 Y-7.274 E18.37717
G1 X1.591 Y-6.957 E18.46985
G1 X2.465 Y-6.524 E18.56159
G1 X3.271 Y-5.984 E18.65283
G1 X3.993 Y-5.351 E18.74314
G1 X4.625 Y-4.629 E18.83339
G1 X5.168 Y-3.821 E18.92495
G1 X5.597 Y-2.956 E19.01576
G1 X5.915 Y-2.02 E19.10874
G1 X6.115 Y-1.025 E19.20419
G1 X6.181 Y-0.002 E19.30061
G0 F3600 X8.185 Y-0.003
G1 F1800 X8.102 Y1.288 E19.42228
G1 X7.85 Y2.541 E19.54249
G1 X7.45 Y3.72 E19.65958
G1 X6.903 Y4.824 E19.77547
G1 X6.212 Y5.854 E19.89212
G1 X5.417 Y6.761 E20.00556
G1 X4.489 Y7.576 E20.12172
G1 X3.47 Y8.258 E20.23704
G1 X2.362 Y8.807 E20.35335
G1 X1.179 Y9.209 E20.47086
G1 X-0.064 Y9.459 E20.59011
G1 X-1.357 Y9.543 E20.71197
G1 X-2.65 Y9.459 E20.83384
G1 X-3.889 Y9.21 E20.9527
G1 X-5.079 Y8.806 E21.0709
G1 X-6.186 Y8.258 E21.18707
G1 X-7.202 Y7.577 E21.30211
G1 X-8.127 Y6.765 E21.41788
G1 X-8.933 Y5.846 E21.53284
G1 X-9.615 Y4.827 E21.64817
G1 X-10.162 Y3.723 E21.76405
G1 X-10.567 Y2.532 E21.88236
G1 X-10.816 Y1.293 E22.00123
G1 X-10.9 Y0.001 E22.123
G1 X-10.816 Y-1.293 E22.24496
G1 X-10.567 Y-2.532 E22.36382
G1 X-10.164 Y-3.72 E22.48181
G1 X-9.614 Y-4.829 E22.59824
G1 X-8.933 Y-5.846 E22.71335
G1 X-8.127 Y-6.765 E22.82832
G1 X-7.202 Y-7.577 E22.94408
G1 X-6.186 Y-8.258 E23.05912
G1 X-5.08 Y-8.805 E23.17517
G1 X-3.89 Y-9.21 E23.2934
G1 X-2.65 Y-9.459 E23.41235
G1 X-1.357 Y-9.543 E23.53422
G1 X-0.064 Y-9.459 E23.65608
G1 X1.179 Y-9.209 E23.77533
G1 X2.358 Y-8.809 E23.89243
G1 X3.472 Y-8.257 E24.00936
G1 X4.489 Y-7.576 E24.12448
G1 X5.411 Y-6.767 E24.23984
G1 X6.216 Y-5.848 E24.35475
G1 X6.902 Y-4.827 E24.47044
G1 X7.447 Y-3.727 E24.5859
G1 X7.85 Y-2.541 E24.70371
G1 X8.102 Y-1.288 E24.82392
G1 X8.185 Y-0.003 E24.94503
G1 F1500 E18.44503
;MESH:Teapot.stl
G0 F3600 X3.155 Y0.00
G0 X-1.357 Y2.429
G0 X-1.357 Y5.533
;TYPE:WALL-OUTER
G1 F1500 E24.94503
G1 F1800 X-2.117 Y5.482 E25.01667
G1 X-2.844 Y5.339 E25.08636
G1 X-3.534 Y5.102 E25.15497
G1 X-4.186 Y4.78 E25.22337
G1 X-4.753 Y4.401 E25.28751
G1 X-5.287 Y3.931 E25.35442
G1 X-5.753 Y3.401 E25.42079
G1 X-6.14 Y2.822 E25.48629
G1 X-6.458 Y2.178 E25.55385
G1 X-6.696 Y1.486 E25.62267
G1 X-6.842 Y0.761 E25.69223
G1 X-6.89 Y0.00 E25.76395
G1 X-6.842 Y-.761 E25.83566
G1 X-6.696 Y-1.486 E25.90522
G1 X-6.459 Y-2.178 E25.97402
G1 X-6.14 Y-2.822 E26.04161
G1 X-5.753 Y-3.401 E26.10711
G1 X-5.287 Y-3.931 E26.17349
G1 X-4.753 Y-4.401 E26.24039
G1 X-4.186 Y-4.78 E26.30454
G1 X-3.534 Y-5.103 E26.37297
G1 X-2.844 Y-5.339 E26.44156
G1 X-2.117 Y-5.482 E26.51125
G1 X-1.357 Y-5.533 E26.58289
G1 X-.591 Y-5.482 E26.65509
G1 X0.13 Y-5.34 E26.72421
G1 X0.818 Y-5.103 E26.79265
G1 X1.466 Y-4.784 E26.86058
G1 X2.048 Y-4.393 E26.92652
G1 X2.579 Y-3.927 E26.99297
G1 X3.033 Y-3.409 E27.05775
G1 X3.424 Y-2.825 E27.12385
G1 X3.746 Y-2.174 E27.19216
G1 X3.98 Y-1.491 E27.26006
G1 X4.126 Y-.759 E27.33027
G1 X4.177 Y0.00 E27.40181
G1 X4.126 Y0.759 E27.47336
G1 X3.98 Y1.491 E27.54356
G1 X3.746 Y2.174 E27.61147
G1 X3.424 Y2.825 E27.67978
G1 X3.033 Y3.409 E27.74588
G1 X2.579 Y3.927 E27.81066
G1 X2.048 Y4.393 E27.87711
G1 X1.466 Y4.784 E27.94305
G1 X0.818 Y5.103 E28.01098
G1 X0.13 Y5.34 E28.07942
G1 X-.591 Y5.482 E28.14854
G1 X-1.357 Y5.533 E28.22074
G0 F3600 X-.591 Y5.482
G0 X-.364 Y5.438
G0 X-1.003 Y2.406
G0 X-1.355 Y3.629
;TYPE:SKIN
G1 F1800 X-1.866 Y3.594 E28.26891
G1 X-2.334 Y3.5 E28.31381
G1 X-2.808 Y3.338 E28.36092
G1 X-3.23 Y3.132 E28.40509
G1 X-3.588 Y2.89 E28.44573
G1 X-3.947 Y2.575 E28.49065
G1 X-4.237 Y2.245 E28.53197
G1 X-4.488 Y1.87 E28.57441
G1 X-4.695 Y1.449 E28.61854
G1 X-4.86 Y0.973 E28.66592
G1 X-4.95 Y0.523 E28.70908
G1 X-4.981 Y0.001 E28.75826
G1 X-4.949 Y-.524 E28.80773
G1 X-4.86 Y-.977 E28.85115
G1 X-4.695 Y-1.448 E28.89809
G1 X-4.488 Y-1.87 E28.9423
G1 X-4.237 Y-2.245 E28.98474
G1 X-3.947 Y-2.575 E29.02606
G1 X-3.587 Y-2.891 E29.07111
G1 X-3.238 Y-3.128 E29.11079
G1 X-2.797 Y-3.342 E29.15689
G1 X-2.337 Y-3.5 E29.20264
G1 X-1.867 Y-3.594 E29.24772
G1 X-1.353 Y-3.629 E29.29617
G1 X-.839 Y-3.594 E29.34463
G1 X-.38 Y-3.504 E29.38862
G1 X0.089 Y-3.34 E29.43535
G1 X0.514 Y-3.132 E29.47985
G1 X0.884 Y-2.882 E29.52185
G1 X1.232 Y-2.578 E29.56531
G1 X1.529 Y-2.241 E29.60756
G1 X1.767 Y-1.883 E29.64799
G1 X1.986 Y-1.44 E29.69447
G1 X2.14 Y-.986 E29.73956
G1 X2.238 Y-.504 E29.78582
G1 X2.269 Y0.001 E29.83341
G1 X2.238 Y0.505 E29.8809
G1 X2.14 Y0.986 E29.92707
G1 X1.986 Y1.44 E29.97216
G1 X1.767 Y1.883 E30.01864
G1 X1.529 Y2.241 E30.05907
G1 X1.232 Y2.578 E30.10132
G1 X0.884 Y2.882 E30.14478
G1 X0.514 Y3.132 E30.18678
G1 X0.092 Y3.338 E30.23094
G1 X-.38 Y3.501 E30.27791
G1 X-.842 Y3.594 E30.32223
G1 X-1.355 Y3.629 E30.37059
G0 F3600 X-1.357 Y2.429
G0 X-.397 Y2.432
G1 F1800 X-3.791 Y-.962 E30.82203
G0 F3600 X-3.623 Y-.904
G0 X-2.345 Y-2.238
G0 X-2.399 Y-2.399
G1 F1800 X1.042 Y1.042 E31.27972
G1 X1.395 Y1.395
G0 F3600 X-.882 Y0.267
;MESH:NONMESH
G0 F600 X-.882 Y0.267 Z2.3
G0 F3600 X0.699 Y1.329
G0 X2.61 Y2.61
;TIME_ELAPSED:15.493812
;LAYER:1
;note -- min layer time used
M106 S255
;TYPE:FILL
;MESH:Teapot.stl
G1 F1430 X-3.967 Y-3.967 E37.1118
G1 X-4.32 Y-4.32
G0 F5400 X2.61 Y-2.61
G1 F1430 X-3.968 Y3.968 E42.94476
G1 X-4.321 Y4.321
G0 F5400 X-1.357 Y5.56
G0 X-1.356 Y8.665
;TYPE:WALL-OUTER
G1 F1430 X-2.548 Y8.586 E43.69381
G1 X-3.686 Y8.36 E44.42129
G1 X-4.758 Y7.991 E45.13216
G1 X-5.777 Y7.488 E45.84469
G1 X-6.681 Y6.881 E46.52744
G1 X-7.511 Y6.155 E47.21887
G1 X-8.24 Y5.322 E47.91294
G1 X-8.845 Y4.417 E48.59551
G1 X-9.351 Y3.401 E49.3072
G1 X-9.716 Y2.331 E50.01607
G1 X-9.942 Y1.192 E50.74417
G1 X-10.021 Y0.00 E51.49321
G1 X-9.942 Y-1.192 E52.24226
G1 X-9.716 Y-2.331 E52.97035
G1 X-9.351 Y-3.401 E53.67923
G1 X-8.845 Y-4.417 E54.39091
G1 X-8.24 Y-5.322 E55.07348
G1 X-7.511 Y-6.155 E55.76756
G1 X-6.681 Y-6.881 E56.45898
G1 X-5.777 Y-7.488 E57.14173
G1 X-4.758 Y-7.991 E57.85426
G1 X-3.686 Y-8.36 E58.56513
G1 X-2.548 Y-8.586 E59.29262
G1 X-1.356 Y-8.665 E60.04166
G1 X-.164 Y-8.586 E60.79071
G1 X0.97 Y-8.36 E61.51573
G1 X2.042 Y-7.991 E62.2266
G1 X3.061 Y-7.488 E62.93913
G1 X3.965 Y-6.881 E63.62188
G1 X4.795 Y-6.155 E64.3133
G1 X5.525 Y-5.321 E65.00827
G1 X6.133 Y-4.417 E65.69136
G1 X6.635 Y-3.401 E66.40193
G1 X7.004 Y-2.33 E67.11221
G1 X7.23 Y-1.192 E67.83969
G1 X7.309 Y0.00 E68.58874
G1 X7.23 Y1.192 E69.33779
G1 X7.004 Y2.33 E70.06527
G1 X6.635 Y3.401 E70.77554
G1 X6.133 Y4.417 E71.48611
G1 X5.525 Y5.321 E72.16921
G1 X4.795 Y6.155 E72.86417
G1 X3.965 Y6.881 E73.5556
G1 X3.061 Y7.488 E74.23835
G1 X2.042 Y7.991 E74.95088
G1 X0.97 Y8.36 E75.66175
G1 X-.164 Y8.586 E76.38677
G1 X-1.356 Y8.665 E77.13582
G0 F5400 X-.359 Y8.599
G0 X-.573 Y5.509
G0 X-1.356 Y6.096
;TYPE:SKIN
G1 F859.1 X-2.203 Y6.038 E78.02188
G1 F859.4 X-3.005 Y5.879 E78.87494
G1 F859.1 X-3.768 Y5.616 E79.71724
G1 F858.4 X-4.491 Y5.258 E80.56001
G1 F857.3 X-5.106 Y4.843 E81.33596
G1 F856.8 X-5.697 Y4.324 E82.15907
G1 F857.3 X-6.19 Y3.763 E82.94017
G1 F857.9 X-6.623 Y3.119 E83.75131
G1 F858.1 X-6.972 Y2.419 E84.56862
G1 F858.9 X-7.234 Y1.653 E85.4138
G1 F859.1 X-7.394 Y0.851 E86.26732
G1 X-7.452 Y0.00 E87.15755
G1 F859.4 X-7.394 Y-.848 E88.04438
G1 F859.1 X-7.232 Y-1.657 E88.90548
G1 F858.4 X-6.971 Y-2.417 E89.74489
G1 F857.9 X-6.623 Y-3.118 E90.56293
G1 X-6.19 Y-3.763 E91.37493
G1 F857.1 X-5.697 Y-4.324 E92.15626
G1 F856.8 X-5.105 Y-4.842 E92.97947
G1 F857.3 X-4.491 Y-5.257 E93.75455
G1 F858.1 X-3.768 Y-5.616 E94.59804
G1 F859.1 X-3.005 Y-5.879 E95.44034
G1 F859.4 X-2.203 Y-6.038 E96.2934
G1 X-1.356 Y-6.096 E97.1792
G1 X-.503 Y-6.038 E98.07124
G1 F859.1 X0.286 Y-5.881 E98.91084
G1 F858.9 X1.055 Y-5.614 E99.76068
G1 F858.4 X1.772 Y-5.258 E100.59691
G1 F858.1 X2.393 Y-4.843 E101.37737
G1 F857.9 X2.982 Y-4.325 E102.19723
G1 F857.1 X3.48 Y-3.756 E102.9883
G1 F856.6 X3.903 Y-3.126 E103.78265
G1 F857.9 X4.258 Y-2.414 E104.61424
G1 F858.9 X4.524 Y-1.646 E105.46275
G1 F858.1 X4.681 Y-.85 E106.31053
G1 F858.6 X4.74 Y0.00 E107.20032
G1 F859.1 X4.682 Y0.847 E108.08638
G1 F858.9 X4.522 Y1.646 E108.93709
G1 F859.4 X4.257 Y2.417 E109.78771
G1 F858.6 X3.904 Y3.127 E110.61575
G1 F857.6 X3.48 Y3.757 E111.40973
G1 X2.982 Y4.325 E112.19954
G1 F857.9 X2.392 Y4.843 E113.02019
G1 F858.1 X1.769 Y5.259 E113.80297
G1 X1.058 Y5.615 E114.63383
G1 F859.1 X0.289 Y5.879 E115.4824
G1 X-.506 Y6.038 E116.32855
G1 F858.6 X-1.356 Y6.096 E117.21827
G0 F5400 X-1.357 Y3.657
;MESH:NONMESH
G0 F600 X-1.357 Y3.657 Z4.3
G0 F5400 X3.064 Y3.435
G0 X4.866 Y4.866
;TIME_ELAPSED:22.021914
;LAYER:2
;note -- min layer time used
;TYPE:FILL
;MESH:Teapot.stl
G1 F3256.3 X-6.223 Y-6.223 E127.05131
G1 X-6.576 Y-6.576
G0 F7200 X-6.088 Y-6.018
G0 X4.683 Y-4.706
G0 X4.866 Y-4.866
G1 F3256.3 X-6.223 Y6.223 E136.88435
G1 X-6.576 Y6.576
G0 F7200 X-6.087 Y6.019
G0 X-1.357 Y7.611
G0 X-1.357 Y10.717
;TYPE:WALL-OUTER
G1 F1800 X-2.829 Y10.618 E137.8094
G1 X-4.239 Y10.339 E138.71064
G1 X-5.562 Y9.886 E139.58747
G1 X-6.825 Y9.26 E140.47133
G1 X-7.937 Y8.517 E141.30989
G1 X-8.966 Y7.612 E142.16913
G1 X-9.873 Y6.577 E143.03202
G1 X-10.617 Y5.469 E143.86885
G1 X-11.243 Y4.206 E144.75271
G1 X-11.696 Y2.882 E145.63013
G1 X-11.978 Y1.472 E146.53173
G1 X-12.073 Y0.00 E147.45662
G1 X-11.978 Y-1.472 E148.38152
G1 X-11.696 Y-2.882 E149.28312
G1 X-11.243 Y-4.206 E150.16054
G1 X-10.617 Y-5.469 E151.0444
G1 X-9.873 Y-6.577 E151.88123
G1 X-8.966 Y-7.612 E152.74412
G1 X-7.937 Y-8.517 E153.60336
G1 X-6.825 Y-9.26 E154.44192
G1 X-5.562 Y-9.887 E155.32606
G1 X-4.239 Y-10.34 E156.20289
G1 X-2.829 Y-10.618 E157.104
G1 X-1.357 Y-10.717 E158.02906
G1 X0.116 Y-10.618 E158.95474
G1 X1.523 Y-10.34 E159.85401
G1 X2.854 Y-9.883 E160.7364
G1 X4.098 Y-9.268 E161.60652
G1 X5.224 Y-8.513 E162.45657
G1 X6.25 Y-7.611 E163.31315
G1 X7.158 Y-6.576 E164.17645
G1 X7.904 Y-5.469 E165.01346
G1 X8.527 Y-4.206 E165.89649
G1 X8.984 Y-2.882 E166.77472
G1 X9.262 Y-1.474 E167.67461
G1 X9.357 Y0.00 E168.60075
G1 X9.262 Y1.474 E169.5269
G1 X8.984 Y2.882 E170.42678
G1 X8.527 Y4.206 E171.30502
G1 X7.904 Y5.469 E172.18804
G1 X7.158 Y6.576 E173.02505
G1 X6.25 Y7.611 E173.88836
G1 X5.224 Y8.513 E174.74494
G1 X4.098 Y9.268 E175.59498
G1 X2.854 Y9.883 E176.46511
G1 X1.523 Y10.34 E177.34749
G1 X0.116 Y10.618 E178.24676
G1 X-1.357 Y10.717 E179.17245
G0 F7200 X-.36 Y10.65
G0 X-.564 Y7.558
G0 X-1.356 Y8.689
;TYPE:SKIN
G1 F1600.7 X-2.56 Y8.607 E180.02333
G1 F1601.4 X-3.703 Y8.38 E180.84461
G1 F1600.7 X-4.775 Y8.013 E181.64353
G1 F1599.3 X-5.815 Y7.494 E182.46378
G1 F1597.2 X-6.692 Y6.908 E183.20913
G1 F1595.7 X-7.533 Y6.17 E184.0005
G1 F1596.5 X-8.257 Y5.343 E184.77755
G1 F1597.2 X-8.859 Y4.448 E185.53976
G1 F1597.9 X-9.369 Y3.423 E186.34842
G1 F1599.3 X-9.735 Y2.347 E187.15049
G1 X-9.965 Y1.2 E187.97605
G1 X-10.045 Y0.00 E188.82478
G1 X-9.965 Y-1.201 E189.67422
G1 F1598.6 X-9.738 Y-2.341 E190.49489
G1 F1599.3 X-9.364 Y-3.426 E191.30479
G1 F1597.2 X-8.852 Y-4.457 E192.11824
G1 F1595.7 X-8.257 Y-5.343 E192.87308
G1 F1597.2 X-7.533 Y-6.169 E193.64926
G1 X-6.696 Y-6.904 E194.4364
G1 F1597.9 X-5.807 Y-7.499 E195.192
G1 F1599.3 X-4.773 Y-8.012 E196.00657
G1 X-3.702 Y-8.382 E196.80622
G1 F1600 X-2.561 Y-8.607 E197.62658
G1 F1601.4 X-1.356 Y-8.689 E198.47779
G1 X-.151 Y-8.607 E199.329
G1 F1600.7 X0.986 Y-8.383 E200.14609
G1 F1600 X2.07 Y-8.008 E200.9552
G1 F1597.2 X3.089 Y-7.501 E201.75948
G1 F1595.7 X3.979 Y-6.906 E202.51667
G1 F1598.6 X4.815 Y-6.171 E203.30258
G1 F1599.3 X5.546 Y-5.339 E204.08417
G1 F1597.2 X6.142 Y-4.45 E204.84049
G1 F1598.6 X6.649 Y-3.429 E205.64532
G1 F1599.3 X7.026 Y-2.336 E206.46126
G1 F1597.9 X7.249 Y-1.21 E207.27204
G1 F1600 X7.329 Y0.00 E208.12743
G1 X7.248 Y1.209 E208.98217
G1 F1598.6 X7.026 Y2.333 E209.79107
G1 F1600.7 X6.649 Y3.43 E210.60895
G1 F1600 X6.142 Y4.45 E211.41243
G1 F1597.9 X5.546 Y5.339 E212.16842
G1 F1600 X4.815 Y6.171 E212.94966
G1 F1598.6 X3.978 Y6.905 E213.73564
G1 F1595 X3.088 Y7.501 E214.49356
G1 F1595.7 X2.067 Y8.01 E215.30045
G1 F1598.6 X0.987 Y8.38 E216.10646
